Default.style/pub.svg

<svg width="26" height="29" xmlns="http://www.w3.org/2000/svg"><path d="M23 23h-2v3c0 1.656-1.344 3-3 3H5a3 3 0 0 1-3-3V11c.613.269 1.287 0 2 0a4.978 4.978 0 0 0 3.416-1.356c.625.22 1.328.356 2.084.356 1.07 0 2.04-.259 2.813-.675a3.835 3.835 0 0 0 2.188.675c.709 0 1.367-.184 1.919-.495A2.989 2.989 0 0 0 19.001 11c.771 0 1.47.479 2 0h2a3 3 0 0 1 3 3v6A3.003 3.003 0 0 1 23 23ZM7 13.5a1.5 1.5 0 1 0-3 0v11a1.5 1.5 0 0 0 3 0v-11Zm6 0a1.5 1.5 0 1 0-3 0v11a1.5 1.5 0 0 0 3 0v-11Zm6 0a1.5 1.5 0 1 0-3 0v11a1.5 1.5 0 0 0 3 0v-11Zm5 1.75c0-1.242-.896-2.25-2-2.25h-1v8h1c1.104 0 2-1.008 2-2.25v-3.5ZM20 10a2.986 2.986 0 0 1-2.615-1.559c-.545.35-1.19.559-1.885.559a3.485 3.485 0 0 1-2.768-1.379A4.476 4.476 0 0 1 9.5 9a4.462 4.462 0 0 1-2.834-1.03A3.491 3.491 0 0 1 3.5 10a3.5 3.5 0 1 1 0-7c.598 0 1.15.164 1.643.427C5.626 1.463 7.387 0 9.5 0a4.492 4.492 0 0 1 4.061 2.589A3.477 3.477 0 0 1 15.5 2c1.499 0 2.768.947 3.268 2.271A2.968 2.968 0 0 1 20 4a3 3 0 0 1 0 6Z" fill="#888" fill-rule="evenodd"/></svg>

<?xml version="1.0" encoding="UTF-8" standalone="no"?>
<svg width="26px" height="29px" viewBox="0 0 26 29" version="1.1" xmlns="http://www.w3.org/2000/svg" xmlns:xlink="http://www.w3.org/1999/xlink" xmlns:sketch="http://www.bohemiancoding.com/sketch/ns">
    <!-- Generator: Sketch 3.2.2 (9983) - http://www.bohemiancoding.com/sketch -->
    <title>pub</title>
    <desc>Created with Sketch.</desc>
    <defs></defs>
    <g id="p" stroke="none" stroke-width="1" fill="none" fill-rule="evenodd" sketch:type="MSPage">
        <g id="pub" sketch:type="MSLayerGroup" fill="#888888">
            <path d="M23,23 L21,23 L21,26 C21,27.656 19.656,29 18,29 L5,29 C3.343,29 2,27.656 2,26 L2,15 L2,11 C2.613,11.269 3.287,11 4,11 C5.322,11 6.521,10.483 7.416,9.644 C8.041,9.864 8.744,10 9.5,10 C10.57,10 11.54,9.741 12.313,9.325 C12.914,9.741 13.668,10 14.501,10 C15.21,10 15.868,9.816 16.42,9.505 C16.941,10.395 17.896,11 19.001,11 C19.772,11 20.471,11.479 21.001,11 L21.001,11 L23.001,11 C24.657,11 26.001,12.343 26.001,14 L26.001,20 C26,21.656 24.656,23 23,23 L23,23 Z M7,13.5 C7,12.671 6.328,12 5.5,12 C4.672,12 4,12.671 4,13.5 L4,24.5 C4,25.328 4.672,26 5.5,26 C6.328,26 7,25.328 7,24.5 L7,13.5 L7,13.5 Z M13,13.5 C13,12.671 12.328,12 11.5,12 C10.672,12 10,12.671 10,13.5 L10,24.5 C10,25.328 10.672,26 11.5,26 C12.328,26 13,25.328 13,24.5 L13,13.5 L13,13.5 Z M19,13.5 C19,12.671 18.328,12 17.5,12 C16.672,12 16,12.671 16,13.5 L16,24.5 C16,25.328 16.672,26 17.5,26 C18.328,26 19,25.328 19,24.5 L19,13.5 L19,13.5 Z M24,15.25 C24,14.008 23.104,13 22,13 L21,13 L21,15.25 L21,16 L21,18.75 L21,21 L22,21 C23.104,21 24,19.992 24,18.75 L24,15.25 L24,15.25 Z M20,10 C18.869,10 17.896,9.366 17.385,8.441 C16.84,8.791 16.195,9 15.5,9 C14.368,9 13.373,8.454 12.732,7.621 C11.914,8.469 10.771,9 9.5,9 C8.42,9 7.442,8.604 6.666,7.97 C6.11,9.166 4.906,10 3.5,10 C1.567,10 0,8.433 0,6.5 C0,4.567 1.567,3 3.5,3 C4.098,3 4.65,3.164 5.143,3.427 C5.626,1.463 7.387,0 9.5,0 C11.299,0 12.84,1.063 13.561,2.589 C14.116,2.218 14.782,2 15.5,2 C16.999,2 18.268,2.947 18.768,4.271 C19.145,4.1 19.559,4 20,4 C21.656,4 23,5.343 23,7 C23,8.657 21.656,10 20,10 L20,10 Z" id="Shape" sketch:type="MSShapeGroup"></path>
        </g>
    </g>
</svg>
